!!!!SEGMENT: pl-kk--kk-i-7--038_maxylewicz-wincenty--alleluia-ave-maria-1mum.krn
!!!cenid: 16xx:837
!!!COM: Maxylewicz, Wincenty
!!!COM-rismid: pe30105799
!!!CDT: ~1685-1745/01/24
!!!CNT: Polish
!!!OTL: Alleluia Ave Maria 1mum
!!!PDT:
!!!AGN: Sacred
!!!SMS-siglum: PL-Kk
!!!SMS-shelfmark: Kk.I.7
!!!SMS-shelfwork: 038 W
!!!SMS-variant:
!!!SMS-altvar:
!!!NIFC-rismid: 300258115
!!!URL-scan: http://repozytorium.nifc.pl/skany/pl-kk-nut--i-7
!!!ONB-nifc: UWAGA: C (skan 0035, s.65), A (0120, s.61), T(0196, s.57), B(0286, s.59). Następny utwór: Alleluia Ave Maria 2dum
**kern	**text	**kern	**text	**kern	**text	**kern	**text
*part4	*part4	*part3	*part3	*part2	*part2	*part1	*part1
*staff4	*staff4	*staff3	*staff3	*staff2	*staff2	*staff1	*staff1
*Ibass	*	*Itenor	*	*Ialto	*	*Ivox	*
*I"BASSUS.	*	*I"TENOR.	*	*I"ALTVS.	*	*I"CANTVS.	*
*I'B	*	*I'T	*	*I'A	*	*I'S	*
*clefF4	*	*clefC4	*	*clefC3	*	*clefC1	*
*k[b-]	*	*k[b-]	*	*k[b-]	*	*k[b-]	*
*F:	*	*F:	*	*F:	*	*F:	*
*M2/1	*	*M2/1	*	*M2/1	*	*M2/1	*
*met(C|)	*	*met(C|)	*	*met(C|)	*	*met(C|)	*
=1-	=1-	=1-	=1-	=1-	=1-	=1-	=1-
!LO:TX:t=P:problem:w źródle znaki przykluczowe: BB- B-, zapisane jeden nad drugim w pionie	!	!	!	!	!	!	!
!	!	!LO:TX:t=P:problem:kreska pseudotaktowa	!	!	!	!	!
!LO:TX:a:i:t=Lente	!	!	!	!	!	!	!
!LO:TX:a:i:t=1mum.	!	!LO:TX:a:i:t=1mum.	!	!LO:TX:a:i:t=1mum.	!	!	!
00r	.	1re	.	4r	.	00r	.
*	*	*2\right	*	*2\right	*	*	*
.	.	.	.	2f\	Al-	.	.
!	!	!	!	!LO:TX:t=P:problem:kreska pseudotaktowa	!	!	!
.	.	.	.	4f\	-le-	.	.
.	.	4r	.	2en\	-lu-	.	.
.	.	2c\	Al-	.	.	.	.
.	.	.	.	2c/	-ia	.	.
!	!	!LO:TX:t=P:problem:kreska pseudotaktowa	!	!	!	!	!
.	.	4c\	-le-	.	.	.	.
=2-	=2-	=2-	=2-	=2-	=2-	=2-	=2-
.	.	2Bn\	-lu-	1d	al-	.	.
!	!	!LO:TX:t=P:problem:kreska pseudotaktowa	!	!	!	!	!
.	.	2G/	-ia	.	.	.	.
.	.	1A	al-	2c\	-le-	.	.
!	!	!	!	!LO:TX:t=P:problem:kreska pseudotaktowa	!	!	!
.	.	.	.	[<2f\	.	.	.
=3-	=3-	=3-	=3-	=3-	=3-	=3-	=3-
!LO:TX:t=P:problem:kreska pseudotaktowa	!	!	!	!	!	!	!
!	!	!	!	!	!	!LO:TX:t=P:problem:kreska pseudotaktowa	!
1r	.	2G/	-le-	2f\]	.	0r	.
!	!	!LO:TX:t=P:problem:kreska pseudotaktowa	!	!	!	!	!
.	.	[>2c\	.	2e\	.	.	.
*2\right	*	*	*	*	*	*	*
4r	.	2c\]	.	2d\	.	.	.
2G\	Al-	.	.	.	.	.	.
!	!	!LO:TX:t=P:problem:kreska pseudotaktowa	!	!	!	!	!
.	.	2Bn\	-lu-	2d\	-lu-	.	.
!LO:TX:t=P:problem:kreska pseudotaktowa	!	!	!	!	!	!	!
4G\	-le-	.	.	.	.	.	.
=4-	=4-	=4-	=4-	=4-	=4-	=4-	=4-
!	!	!LO:TX:t=P:problem:rozdzielacz słów / znak oddechu:global	!	!LO:TX:t=P:problem:kreska pseudotaktowa	!	!	!
2E\	-lu-	4c,\	-ia	1g	-ia	4r	.
*	*	*	*	*	*	*2\right	*
*	*	*	*ij	*	*	*	*
.	.	2e\	al-	.	.	2cc\	Al-
!LO:TX:t=P:problem:kreska pseudotaktowa	!	!	!	!	!	!	!
2E\	-ia	.	.	.	.	.	.
!	!	!LO:TX:t=P:problem:kreska pseudotaktowa	!	!	!	!LO:TX:t=P:problem:kreska pseudotaktowa	!
.	.	4e\	-le-	.	.	4cc\	-le-
4r	.	2c\	-lu-	4r	.	2a\	-lu-
*	*ij	*	*	*	*ij	*	*
2F\	Al-	.	.	2a\	al-	.	.
!	!	!LO:TX:t=P:problem:kreska pseudotaktowa	!	!	!	!LO:TX:t=P:problem:kreska pseudotaktowa	!
.	.	2c\	-ia	.	.	2a\	-ia
*	*	*	*Xij	*	*	*	*
!LO:TX:t=P:problem:kreska pseudotaktowa	!	!	!	!	!	!	!
4F\	-le-	.	.	4a\	-le-	.	.
=5-	=5-	=5-	=5-	=5-	=5-	=5-	=5-
2D/	-lu-	4r	.	2f\	-lu-	4r	.
*	*	*	*	*	*	*	*ij
.	.	2d\	al-	.	.	2bn\	Al-
!LO:TX:t=P:problem:kreska pseudotaktowa	!	!	!	!LO:TX:t=P:problem:kreska pseudotaktowa	!	!	!
2D/	-ia	.	.	2f\	-ia	.	.
*	*Xij	*	*	*	*Xij	*	*
!	!	!LO:TX:t=P:problem:kreska pseudotaktowa	!	!	!	!LO:TX:t=P:problem:kreska pseudotaktowa	!
.	.	4d\	-le-	.	.	4b\	-le-
2E\	al-	4Bn\	-lu-	2e\	al-	4g#X/	-lu-
!	!	!	!	!	!	!LO:TX:t=P:problem:rozdzielacz słów / znak oddechu; w źródle zwykle zapisane na pięciolinii:global	!
.	.	4B,\	-ia	.	.	4g#,/	-ia
*	*	*	*	*	*	*	*Xij
*	*	*	*ij	*	*	*	*
!LO:TX:t=P:problem:kreska pseudotaktowa	!	!	!	!	!	!	!
2D\	-le-	4f\	al-	2a\	-le-	4cc\	al-
!	!	!LO:TX:t=P:problem:kreska pseudotaktowa	!	!	!	!LO:TX:t=P:problem:kreska pseudotaktowa	!
.	.	4f\	-le-	.	.	4cc\	-le-
=6-	=6-	=6-	=6-	=6-	=6-	=6-	=6-
!	!	!	!	!	!	!LO:TX:t=P:problem:kreska pseudotaktowa	!
!LO:TX:t=P:problem:kreska pseudotaktowa	!	!	!	!	!	!LO:SIC:v:t=custos a	!
1E	-lu-	1e	-lu-	2a\	-lu-	1bn	-lu-
!	!	!	!	!	!	!LO:TX:a:i:t=1mum.	!
.	.	.	.	2g#X\	-ia	.	.
!	!	!	!	!	!	!LO:LB:g=original	!
!LO:TX:t=P:problem:rozdzielacz słów / znak oddechu:global	!	!LO:TX:t=P:problem:kreska pseudotaktowa	!	!LO:TX:t=P:problem:rozdzielacz słów / znak oddechu:global	!	!	!
4AA,/	-ia	1e	-ia	2.a,\	.	4a,\	-ia
*	*	*	*Xij	*	*	*	*
*	*ij	*	*	*	*	*	*ij
2A\	al-	.	.	.	.	2cc\	al-
*	*	*	*	*	*ij	*	*
!LO:TX:t=P:problem:kreska pseudotaktowa	!	!	!	!LO:TX:t=P:problem:kreska pseudotaktowa	!	!LO:TX:t=P:problem:kreska pseudotaktowa	!
4A\	-le-	.	.	4e\	al-	4cc\	-le-
=7-	=7-	=7-	=7-	=7-	=7-	=7-	=7-
2F\	-lu-	4r	.	2f\	-le-	2a\	-lu-
.	.	2d\	al-	.	.	.	.
!LO:TX:t=P:problem:kreska pseudotaktowa	!	!	!	!	!	!LO:TX:t=P:problem:kreska pseudotaktowa	!
2F\	-ia	.	.	2f\	-lu-	2a\	-ia
*	*Xij	*	*	*	*	*	*Xij
.	.	4d\	-le-	.	.	.	.
4r	.	2Bn\	-lu-	2.d,\	-ia	4r	.
*	*	*	*	*	*Xij	*	*
2G\	al-	.	.	.	.	2bn\	Al-
!	!	!LO:TX:t=P:problem:kreska pseudotaktowa	!	!	!	!	!
.	.	2B\	-ia	.	.	.	.
!LO:TX:t=P:problem:kreska pseudotaktowa	!	!	!	!	!	!LO:TX:t=P:problem:kreska pseudotaktowa	!
4G\	-le-	.	.	4d\	al-	4b\	-le-
=8-	=8-	=8-	=8-	=8-	=8-	=8-	=8-
2E\	-lu-	4r	.	2e\	-le-	2g/	-lu-
.	.	2c\	al-	.	.	.	.
!	!	!	!	!LO:TX:t=P:problem:kreska pseudotaktowa	!	!	!
!LO:TX:t=P:problem:kreska pseudotaktowa	!	!	!	!LO:SIC:v:t=custos c	!	!LO:TX:t=P:problem:kreska pseudotaktowa	!
2E\	-ia	.	.	2e\	-lu-	2g/	-ia
!	!	!	!	!LO:LB:g=original	!	!	!
!	!	!LO:TX:t=P:problem:kreska pseudotaktowa	!	!	!	!	!
!	!	!LO:SIC:v:t=custos c	!	!	!	!	!
.	.	4c\	-le-	.	.	.	.
!	!	!LO:LB:g=original	!	!	!	!	!
!LO:SIC:v:t=custos G	!	!	!	!	!	!	!
1F	al-	2c\	-lu-	2c/	-ia	2a\	al-
!	!	!	!	!LO:TX:t=P:problem:kreska pseudotaktowa	!	!	!
.	.	4c,\	-ia	[<2f\	al-	2a\	-le-
*	*	*	*ij	*	*	*	*
!	!	!LO:TX:t=P:problem:kreska pseudotaktowa	!	!	!	!	!
.	.	4A/	al-	.	.	.	.
!LO:LB:g=original	!	!	!	!	!	!	!
=9-	=9-	=9-	=9-	=9-	=9-	=9-	=9-
4.G\	-le-	2.G/	-le-	2f\]	.	4bn\	-lu-
.	.	.	.	.	.	4g,\	-ia
8F\	-lu-	.	.	.	.	.	.
*	*	*	*	*	*	*	*ij
4E,\	-ia	.	.	2e\	-le-	2.cc\	al-
*	*ij	*	*	*	*	*	*
!LO:TX:t=P:problem:kreska pseudotaktowa	!	!	!	!	!	!	!
4C/	al-	4G/	-lu-	.	.	.	.
!	!	!	!	!LO:TX:t=P:problem:kreska pseudotaktowa	!	!	!
2G\	-le-	2G,/	-ia	1d	-lu-	.	.
*	*	*	*Xij	*	*	*	*
.	.	.	.	.	.	4dd\	-le-
!LO:TX:t=P:problem:kreska pseudotaktowa	!	!LO:TX:t=P:problem:kreska pseudotaktowa	!	!	!	!LO:TX:t=P:problem:kreska pseudotaktowa	!
2GG/	-lu-	[<2G/	A-	.	.	2bn\	-lu-
=10-	=10-	=10-	=10-	=10-	=10-	=10-	=10-
2C/	-ia	2G/]	.	2c,\	-ia	2cc\	-ia
*	*Xij	*	*	*	*	*	*Xij
!LO:TX:t=P:problem:kreska pseudotaktowa	!	!LO:TX:t=P:problem:kreska pseudotaktowa	!	!LO:TX:t=P:problem:kreska pseudotaktowa	!	!LO:TX:t=P:problem:kreska pseudotaktowa	!
2r	.	[<2A\	-ve	[<2c\	A-	2r	.
!LO:TX:t=P:problem:kreska pseudotaktowa	!	!	!	!	!	!	!
1r	.	2A/]	.	2c\]	.	0r	.
!	!	!LO:TX:t=P:problem:kreska pseudotaktowa	!	!LO:TX:t=P:problem:kreska pseudotaktowa	!	!	!
.	.	2G/	Ma-	[<2d\	-ve	.	.
=11-	=11-	=11-	=11-	=11-	=11-	=11-	=11-
2r	.	2C/	-ri-	2d\]	.	.	.
!LO:TX:t=P:problem:kreska pseudotaktowa	!	!	!	!LO:TX:t=P:problem:kreska pseudotaktowa	!	!	!
[<2C/	A-	2G/	-a	2c\	Ma-	.	.
!	!	!	!	!	!	!LO:TX:t=P:problem:kreska pseudotaktowa	!
2C/]	.	2A\	gra-	2e\	-ri-	1r	.
!LO:TX:t=P:problem:kreska pseudotaktowa	!	!	!	!	!	!	!
[<2D\	-ve	4A/	-ti-	2f\	-a	.	.
.	.	4A/	-a	.	.	.	.
=12-	=12-	=12-	=12-	=12-	=12-	=12-	=12-
2D\]	.	2G/	ple-	2.e\	gra-	2r	.
!LO:TX:t=P:problem:kreska pseudotaktowa	!	!LO:TX:t=P:problem:kreska pseudotaktowa	!	!	!	!LO:TX:t=P:problem:kreska pseudotaktowa	!
2C/	Ma-	2G/	-na	.	.	[<2g\	A-
.	.	.	.	4e\	-ti-	.	.
2E\	-ri-	1c	Do-	2c/	-a	2g\]	.
!LO:TX:t=P:problem:kreska pseudotaktowa	!	!	!	!LO:TX:t=P:problem:kreska pseudotaktowa	!	!LO:TX:t=P:problem:kreska pseudotaktowa	!
2F\	-a	.	.	[<2f\	ple-	[<2a\	-ve
=13-	=13-	=13-	=13-	=13-	=13-	=13-	=13-
2D\	gra-	2.B-X\	-mi-	2f\]	.	2a\]	.
!LO:TX:t=P:problem:kreska pseudotaktowa	!	!	!	!LO:TX:t=P:problem:kreska pseudotaktowa	!	!	!
2E\	-ti-	.	.	[<2g\	.	2g\	Ma-
.	.	4B-\	.	.	.	.	.
!	!	!LO:TX:t=P:problem:kreska pseudotaktowa	!	!	!	!	!
!LO:TX:t=P:problem:kreska pseudotaktowa	!	!	!	!	!	!	!
1F	-a	1A	-nus	2g\]	.	2cc\	-ri-
!	!	!	!	!LO:TX:t=P:problem:kreska pseudotaktowa	!	!LO:TX:t=P:problem:kreska pseudotaktowa	!
.	.	.	.	[<2f\	.	2cc\	-a
!	!	!	!	!	!	!LO:LB:g=original	!
=14-	=14-	=14-	=14-	=14-	=14-	=14-	=14-
2G\	ple-	(>2d\	Te-	2f\]	.	4bn\	gra-
.	.	.	.	.	.	4b\	-ti-
!LO:TX:t=P:problem:kreska pseudotaktowa	!	!	!	!LO:TX:t=P:problem:kreska pseudotaktowa	!	!	!
2C/	-na	2c\)	.	2e,\	-na	2g/	-a
2F\	Do-	2c,\	-cum	2f\	Do-	2a\	ple-
!LO:TX:t=P:problem:kreska pseudotaktowa	!	!	!	!	!	!LO:TX:t=P:problem:kreska pseudotaktowa	!
2E\	-mi-	4c\	be-	4g\	-mi-	2g\	-na
!	!	!LO:TX:t=P:problem:kreska pseudotaktowa	!	!	!	!	!
.	.	4c\	-ne-	4g\	-n(us)	.	.
=15-	=15-	=15-	=15-	=15-	=15-	=15-	=15-
!	!	!	!	!	!	!LO:TX:t=P:problem:kreska pseudotaktowa	!
(>2F\	-nus	2c\	-di-	(>2a\	Te-	1rdd	.
!	!	!LO:TX:t=P:problem:kreska pseudotaktowa	!	!	!	!	!
!LO:TX:t=P:problem:kreska pseudotaktowa	!	!	!	!	!	!	!
2C/)	.	2c\	-cta	2g\)	.	.	.
(>2F\	Te-	2c\	Tu	2a\	-cum	4f/	Do-
.	.	.	.	.	.	4f/	-mi-
!LO:TX:t=P:problem:kreska pseudotaktowa	!	!	!	!	!	!	!
!LO:SIC:v:t=custos F	!	!	!	!LO:TX:t=P:problem:kreska pseudotaktowa	!	!LO:TX:t=P:problem:kreska pseudotaktowa	!
2E\)	.	2c\	in	2g,\	.	2cc\	-nus
!LO:LB:g=original	!	!	!	!	!	!	!
=16-	=16-	=16-	=16-	=16-	=16-	=16-	=16-
2F,\	-cum	2c\	mu-	2r	.	2ff\	Te-
!	!	!LO:TX:t=P:problem:kreska pseudotaktowa	!	!LO:TX:t=P:problem:kreska pseudotaktowa	!	!	!
!LO:TX:t=P:problem:kreska pseudotaktowa	!	!	!	!LO:SIC:v:t=custos e	!	!LO:TX:t=P:problem:kreska pseudotaktowa	!
2A\	be-	2c\	-li-	2c/	be-	2cc\	-cum
!	!	!	!	!LO:LB:g=original	!	!	!
*	*	*	*	*	*	*	*ij
2c\	-ne-	4c\	-e-	2e\	-ne-	4c/	Do-
.	.	4c\	-ri-	.	.	4c/	-mi-
!	!	!LO:TX:t=P:problem:kreska pseudotaktowa	!	!	!	!	!
!LO:TX:t=P:problem:kreska pseudotaktowa	!	!LO:SIC:v:t=custos c	!	!LO:TX:t=P:problem:kreska pseudotaktowa	!	!LO:TX:t=P:problem:kreska pseudotaktowa	!
[<2C/	-di-	2c\	-bus	[<2g\	-di-	2e/	-nus
!	!	!LO:LB:g=original	!	!	!	!	!
=17-	=17-	=17-	=17-	=17-	=17-	=17-	=17-
!LO:N:xstem:cue	!	!	!	!	!	!	!
4C/]	.	2c\	et	4g\]	.	2.g/	Te-
4D\	.	.	.	4f\	.	.	.
!LO:TX:t=P:problem:kreska pseudotaktowa	!	!	!	!	!	!	!
2E\	-cta	4c\	be-	4e\	.	.	.
!	!	!LO:TX:t=P:problem:kreska pseudotaktowa	!	!	!	!	!
.	.	4c\	-ne-	4f\	.	4f/	.
2C/	Tu	2c\	-di-	2g,\	-cta	2e,/	-cum
*	*	*	*	*	*	*	*Xij
!LO:TX:t=P:problem:kreska pseudotaktowa	!	!LO:TX:t=P:problem:kreska pseudotaktowa	!	!LO:TX:t=P:problem:kreska pseudotaktowa	!	!	!
[<2F\	in	2c\	-ctus	2a\	Tu	4f/	be-
!	!	!	!	!	!	!LO:TX:t=P:problem:kreska pseudotaktowa	!
.	.	.	.	.	.	4g/	-ne-
=18-	=18-	=18-	=18-	=18-	=18-	=18-	=18-
!LO:N:xstem:cue	!	!	!	!	!	!	!
4F\]	.	1c	Fru-	2r	.	4a\	-di-
4G\	.	.	.	.	.	4b-\	.
!	!	!	!	!LO:TX:t=P:problem:kreska pseudotaktowa	!	!	!
4A\	.	.	.	2c/	in	(>2.cc\	-cta
!LO:TX:t=P:problem:kreska pseudotaktowa	!	!	!	!	!	!	!
4B-\	.	.	.	.	.	.	.
2.c\	mu-	1c	-ct(us)	2e\	mu-	.	.
.	.	.	.	.	.	4dd\)	.
!	!	!	!	!LO:TX:t=P:problem:kreska pseudotaktowa	!	!LO:TX:t=P:problem:kreska pseudotaktowa	!
.	.	.	.	2g\	-li-	2ee\	Tu
!LO:TX:t=P:problem:kreska pseudotaktowa	!	!	!	!	!	!	!
4B-X\	-li-	.	.	.	.	.	.
=19-	=19-	=19-	=19-	=19-	=19-	=19-	=19-
4A\	-e-	2c\	Ven-	2c\	-e-	2ff\	in
4G\	.	.	.	.	.	.	.
!LO:TX:t=P:problem:kreska pseudotaktowa	!	!	!	!LO:TX:t=P:problem:kreska pseudotaktowa	!	!	!
2F\	.	2c\	-tris	2f\	.	4a\	mu-
!	!	!	!	!	!	!LO:TX:t=P:problem:kreska pseudotaktowa	!
.	.	.	.	.	.	4a\	-li-
!	!	!	!	!	!	!LO:TX:t=P:problem:kreska pseudotaktowa	!
!	!	!	!	!	!	!LO:SIC:v:t=custos g	!
2G\	.	2Bn\	Tu-	2d\	.	[<1g	-e-
!LO:TX:t=P:problem:kreska pseudotaktowa	!	!LO:TX:t=P:problem:kreska pseudotaktowa	!	!	!	!	!
2C/	.	[<2c\	.	2e\	.	.	.
!	!	!	!	!	!	!LO:LB:g=original	!
=20-	=20-	=20-	=20-	=20-	=20-	=20-	=20-
2G\	.	2c\]	.	2.d\	.	2.g/]	.
!LO:TX:t=P:problem:kreska pseudotaktowa	!	!	!	!	!	!	!
2GG/	-ri-	2Bn\	.	.	.	.	.
!	!	!	!	!LO:TX:t=P:problem:kreska pseudotaktowa	!	!	!
!	!	!	!	!	!	!LO:TX:t=P:problem:kreska pseudotaktowa	!
.	.	.	.	4d\	ri-	4g/	-ri-
2C,/	-bus	2c\	-i.	2c/	-bus	2g,\	-bus,
!LO:TX:t=P:problem:kreska pseudotaktowa	!	!LO:TX:t=P:problem:kreska pseudotaktowa	!	!LO:TX:t=P:problem:kreska pseudotaktowa	!	!	!
2F\	et	2r	.	2r	.	2a\	et
=21-	=21-	=21-	=21-	=21-	=21-	=21-	=21-
2.G\	be-	2d\	et	2d\	et	2.b-X\	be-
.	.	4B-X\	be-	2.e\	be-	.	.
!	!	!LO:TX:t=P:problem:kreska pseudotaktowa	!	!	!	!	!
!LO:TX:t=P:problem:kreska pseudotaktowa	!	!	!	!	!	!LO:TX:t=P:problem:kreska pseudotaktowa	!
4E\	-ne-	4B-\	-ne-	.	.	4g/	-ne-
2.A\	-di-	2c\	-di-	.	.	2.cc\	-di-
.	.	.	.	4c/	-ne-	.	.
!	!	!LO:TX:t=P:problem:kreska pseudotaktowa	!	!LO:TX:t=P:problem:kreska pseudotaktowa	!	!	!
.	.	2A/	-ct(us)	[<2f\	-di-	.	.
!LO:TX:t=P:problem:kreska pseudotaktowa	!	!	!	!	!	!LO:TX:t=P:problem:kreska pseudotaktowa	!
4F\	-ctus	.	.	.	.	4a/	-ctus
=22-	=22-	=22-	=22-	=22-	=22-	=22-	=22-
!	!	!	!	!LO:N:xstem:cue	!	!	!
2.B-X\	Fru-	1B-X	Fru-	4f\]	.	2.dd\	Fru-
.	.	.	.	4d\	-ctus	.	.
!	!	!	!	!LO:TX:t=P:problem:kreska pseudotaktowa	!	!	!
.	.	.	.	[>2g\	Fru-	.	.
!LO:TX:t=P:problem:kreska pseudotaktowa	!	!	!	!	!	!LO:TX:t=P:problem:kreska pseudotaktowa	!
4G\	-ctus	.	.	.	.	4dd\	-ctus
!LO:LB:g=original	!	!	!	!	!	!	!
2.A\	Ven-	2A\	-ctus	2g\]	.	2.cc#X\	Ven-
!	!	!LO:TX:t=P:problem:kreska pseudotaktowa	!	!	!	!	!
.	.	[<2d\	Ven-	2f,\	-ct(us)	.	.
!LO:TX:t=P:problem:kreska pseudotaktowa	!	!	!	!	!	!LO:TX:t=P:problem:kreska pseudotaktowa	!
4D/	-tris	.	.	.	.	4dd\	-tris
=23-	=23-	=23-	=23-	=23-	=23-	=23-	=23-
2G\	Tu-	4d\]	.	2g\	Ven-	4bn\	Tu-
.	.	4A/	-tris	.	.	4cc#X\	.
!	!	!LO:TX:t=P:problem:kreska pseudotaktowa	!	!	!	!	!
!LO:TX:t=P:problem:kreska pseudotaktowa	!	!	!	!	!	!LO:TX:t=P:problem:kreska pseudotaktowa	!
2D\	.	2A/	Tu-	2f\	-tris	[<2dd\	.
!	!	!	!	!LO:TX:t=P:problem:kreska pseudotaktowa	!	!	!
2A\	.	2A,\	-i	1e	Tu-	2dd\]	.
!LO:TX:t=P:problem:kreska pseudotaktowa	!	!	!	!	!	!	!
2AA/	.	4A/	be-	.	.	2cc#X,\	-i,
!	!	!LO:TX:t=P:problem:kreska pseudotaktowa	!	!	!	!	!
.	.	4A/	-ne-	.	.	.	.
=24-	=24-	=24-	=24-	=24-	=24-	=24-	=24-
2D,\	-i	2A\	-di-	2d,\	-i	4dd\	Fru-
.	.	.	.	.	.	4a\	-ctus
!	!	!LO:TX:t=P:problem:kreska pseudotaktowa	!	!	!	!	!
!	!	!LO:SIC:v:t=custos c	!	!	!	!LO:TX:t=P:problem:kreska pseudotaktowa	!
4D/	be-	2d\	-ctus	4d\	be-	[2b-X\	Ven-
!	!	!LO:LB:g=original	!	!	!	!	!
!LO:TX:t=P:problem:kreska pseudotaktowa	!	!	!	!LO:TX:t=P:problem:kreska pseudotaktowa	!	!	!
!	!	!	!	!LO:SIC:custos g:v	!	!	!
4D/	-ne-	.	.	4f\	-ne-	.	.
!	!	!	!	!LO:LB:g=original	!	!	!
2.E\	-di-	4r	.	2.g\	-di-	4b-\]	.
.	.	4c\	Fru-	.	.	4g/	.
!	!	!	!	!	!	!LO:TX:t=P:problem:kreska pseudotaktowa	!
!	!	!LO:TX:t=P:problem:kreska pseudotaktowa	!	!	!	!LO:SIC:v:t=custos cc	!
.	.	2G/	-ctus	.	.	2cc\	.
!LO:TX:t=P:problem:kreska pseudotaktowa	!	!	!	!LO:TX:t=P:problem:kreska pseudotaktowa	!	!	!
4C/	-ctus	.	.	4e\	-ctus	.	.
!	!	!	!	!	!	!LO:LB:g=original	!
=25-	=25-	=25-	=25-	=25-	=25-	=25-	=25-
2.F\	Fru-	4r	.	2.a\	Fru-	4cc\	.
*	*	*	*ij	*	*	*	*
.	.	4c\	Fru-	.	.	4a\	.
!	!	!LO:TX:t=P:problem:kreska pseudotaktowa	!	!	!	!LO:TX:t=P:problem:kreska pseudotaktowa	!
.	.	2d\	-ctus	.	.	2dd\	.
*	*	*	*Xij	*	*	*	*
!LO:TX:t=P:problem:kreska pseudotaktowa	!	!	!	!LO:TX:t=P:problem:kreska pseudotaktowa	!	!	!
4BB-/	-ctus	.	.	4b-\	-ct(us)	.	.
2C/	Ven-	2e\	Ven-	4g\	Ven-	4cc\	.
.	.	.	.	4g\	-tris	4b-\	.
!LO:TX:t=P:problem:kreska pseudotaktowa	!	!	!	!LO:TX:t=P:problem:kreska pseudotaktowa	!	!	!
2F\	-tris	2c\	-tris	[<2f\	Tu-	2a\	-tris
=26-	=26-	=26-	=26-	=26-	=26-	=26-	=26-
!	!	!	!	!	!	!LO:TX:t=P:problem:kreska pseudotaktowa	!
1C	tu-	1c	Tu-	2f\]	.	1g	tu-
!	!	!	!	!LO:TX:t=P:problem:kreska pseudotaktowa	!	!	!
.	.	.	.	2e\	.	.	.
2F,\	-i	2c,\	-i	2f,\	-i.	2f,/	-i,
!LO:TX:t=P:problem:kreska pseudotaktowa	!	!LO:TX:t=P:problem:kreska pseudotaktowa	!	!	!	!LO:TX:t=P:problem:kreska pseudotaktowa	!
2F\	al-	2c\	al-	2f\	al-	2cc\	al-
=27-	=27-	=27-	=27-	=27-	=27-	=27-	=27-
2En\	-le-	2e\	-le-	2g\	-le-	2cc\	-le-
!LO:TX:t=P:problem:kreska pseudotaktowa	!	!	!	!LO:TX:t=P:problem:kreska pseudotaktowa	!	!	!
2E\	-lu-	2e\	-lu-	2g\	-lu-	2cc\	-lu-
2D\	-ia	2f\	-ia	2a,\	-ia	2dd,\	-ia
4BB-X/	al-	4f\	al-	4b-X\	al-	4dd\	al-
!LO:TX:t=P:problem:kreska pseudotaktowa	!	!LO:TX:t=P:problem:kreska pseudotaktowa	!	!LO:TX:t=P:problem:kreska pseudotaktowa	!	!LO:TX:t=P:problem:kreska pseudotaktowa	!
4BB-/	-le-	4f\	-le-	4b-\	-le-	4dd\	-le-
=28-	=28-	=28-	=28-	=28-	=28-	=28-	=28-
2C/	-lu-	[<1c	-lu-	2e\	-lu-	2g/	-lu-
!	!	!	!	!	!	!LO:TX:t=P:problem:kreska pseudotaktowa	!
2F\	.	.	.	1f	.	2a\	.
1C	.	1c]	.	.	.	1g	.
.	.	.	.	2e\	.	.	.
=29-	=29-	=29-	=29-	=29-	=29-	=29-	=29-
0FF;	-ia.	0c;	-ia.	0f;	-ia.	0a;	-ia.
==	==	==	==	==	==	==	==
*-	*-	*-	*-	*-	*-	*-	*-
!!!system-decoration: [(s1,s2,s3,s4)]
!!!RDF**kern: > = above
!!!RDF**kern: < = below
!!!EED: Antoni Szymański
!!!EST: 2021-03-13
!!!ENC: Andrzej Kubiczek
!!!END: 2021-02-25
